X:1
T: Inverary Cross
C:Carl Volti
R:Reel
Q: 232
K:D
M:4/4
L:1/8
|:A2|d2 fd B2 dB|AB AG FD D2|FG AB cd ef|eB Bd c2 A2|
d2 fd B2 dB|AB AG FD D2|FG AB cd ef|eg ec d2 A2|
de fg a2 fd|gf ed cA Bc|de fg a2 fd|eg ec d2 A2|
de fg a2 fd|gf ed cB AG|FG AB cd ef|eg ec d2:|
